X:14191
T:Reinl\"ander
R:Reinl\"ander
O:Norway
M:4/4
K:D
D2d2 A2f2|f2ed e2GF|EFGA B2cd|edcB AGFE|\
D2d2 A2f2|f2ed e2GF|EFGA BAfe|d2d2 d4:|
K:Am
|:e3d cBA2|e3d cBA2|E2^GB A2cA|B2e2 e4|\
e3d CBA2|e3d cBA2|E2^GB cBAG|A2A2 A4:|
